X: 827
T: Road To California
B: jims roots
M:4/4
L:1/8
Q: 1/4=100
K:G
V:1 
(3(DEF) [| "G" GFGB "D" AGED | "G" GBdg "C" e2 e-f | "G" gfgd "Em" edBG |
"Am" ABAG "D" E2 D-F | "G" GFGB "D" AGED | "G" GBdg "C" e2 e-f |
"G" gfgd "Em" edBG | [1 "G" AGEF "D" G2 (3(DEF):| [2 "G" AGEF "D" G2 e-f||
|: "Em" gfeg "Bm" fedf | "C" edef "Em" edBf | "G" gfgd "Em" edBG |
"Am" ABAG "D" E2 D-F | "G" GFGB "D" AGED | "G" GBdg "C" e2 e-f |
"D" gfgd "Em" edBG | [1 "D" AGEF "G" G2 e-f:| [2 "D" AGEF "G" G2 |]
% abcbook-tune_id 6298c2795654141dd491476a


% abcbook-boost 0
% abcbook-tablature 
% abcbook-transpose 
% abcbook-lastupdated 1654178426937
% abcbook-soundfonts 
% abcbook-repeats 1


